X: 27503
T: Mom's
R: jig
M: 6/8
K: Adorian
|:EAA AGA|BAA A2G|EAA ABc|Bdc BAG|
EAA AGA|BAA Aaf|gag gfe|dBG GAB:|
|:AaA g2A|fed eAA|Aaf g2e|dBG GAB:|
E3 A2B|c2A AGE|E3 A2c|Bdc BAG|
E3 A2c|c2A AEF|GAG GFE|DB,G, G,A,B,|
A,2A ABc|B2A A2B,|A,2A ABc|Bdc BAB|
A,2A ABc|B2A Aaf|gag gfe|dBG GAB||
|:AaA g2A|fed eAA|Aaf g2e|dBG GAB:|

